icons/edit-circle-fill.svg

<svg width="24" height="24" fill="none" xmlns="http://www.w3.org/2000/svg"><g clip-path="url(#a)"><path d="M16.626 3.132 9.29 10.466l.008 4.247 4.238-.007 7.331-7.332A9.958 9.958 0 0 1 22 12c0 5.523-4.477 10-10 10S2 17.523 2 12 6.477 2 12 2a9.96 9.96 0 0 1 4.626 1.132Zm3.86-1.031 1.413 1.414-9.192 9.192-1.412.003-.002-1.417L20.485 2.1l.001.001Z" /></g><defs><clipPath id="a"><path fill="#fff" d="M0 0h24v24H0z"/></clipPath></defs></svg>

<svg xmlns="http://www.w3.org/2000/svg" width="24" height="24" fill="none"><g clip-path="url(#a)"><g><path fill="#121212" d="M16.626 3.132L9.29 10.466L9.298 14.713L13.536 14.706L20.867 7.374C21.6133 8.80164 22.0021 10.3891 22 12C22 17.523 17.523 22 12 22C6.477 22 2 17.523 2 12C2 6.477 6.477 2 12 2C13.669 2 15.242 2.409 16.626 3.132ZM20.486 2.101L21.899 3.515L12.707 12.707L11.295 12.71L11.293 11.293L20.485 2.1L20.486 2.101Z"/></g></g><defs><clipPath id="a"><rect width="24" height="24" fill="white"/></clipPath></defs></svg>
